X: 544
T: Nian gaomian
%%abc-version 2.0
%%abcx-abcm2ps-target-version 5.9.1 (29 Sep 2008)
%%abc-creator hum2abc beta
%%abcx-conversion-date 2013/10/02 07:52:30
%%abc-edited-by Helmut Schaffrath
%%humdrum-veritas 1043017779
%%humdrum-veritas-data 1277518750
%%continueall 1
%%barnumbers 0
L: 1/8
M: 2/4
K: Eb
e2d c [I:setbarnb 1]| 
e2d c | 
e2g3/ c/ | 
B G B B | 
e> g f c | 
e G B c | 
B4 | 
cc2e | 
f g f e | 
e G B c | 
G FE2 | 
B c B B | 
G F/ F/E2 | 
e> g f e | 
e G B c | 
G FE2 |]  



